X:15648
T:Smuggler's Reel
M:2/4
L:1/16
K:A
z2|EFAB c2ec|BABc BAFA|EFAB c2ec|BABc A4|!
EFAB c2ec|BABc BAFA|EFAB c2f2|ecBc A2:|!
|:z2|ceef ecAc|BABc BAFA|ceef ecAc|BABc B2A2|!
ceef ecAc|BABc BAFA|EFAB c2f2|ecBc A2:|!


